Sources/DesignResourcesKit/DesignSystemImages.xcassets/Color/16px/Shield-Neutral-Alert-Color-16.imageset/Shield-Neutral-Alert-Color-16.svg

<svg width="16" height="16" viewBox="0 0 16 16" fill="none" xmlns="http://www.w3.org/2000/svg">
<g clip-path="url(#clip0_9429_4847)">
<path d="M10.0571 1.87158C10.0202 2.0755 10 2.28542 10 2.5C10 4.433 11.567 6 13.5 6C14.0369 6 14.5453 5.87864 15 5.6626V9.5L12 14L8 15.5L4 14L1 9.5V3.5L2.5 2.5H5L8 0.5L10.0571 1.87158Z" fill="url(#paint0_linear_9429_4847)"/>
<path d="M10.0571 1.87158C10.0202 2.0755 10 2.28542 10 2.5C10 4.433 11.567 6 13.5 6C14.0369 6 14.5453 5.87864 15 5.6626V9.5L12 14L9 15H8V0.5L10.0571 1.87158Z" fill="url(#paint1_linear_9429_4847)"/>
<path d="M6.11874 0.667165C7.01652 -0.0876228 8.26223 -0.20639 9.26913 0.305025C9.53866 0.44192 9.76678 0.625459 9.98455 0.824666C10.1691 0.993522 10.2154 1.26188 10.1444 1.50176C10.0748 1.7368 10.0293 1.98218 10.0103 2.23504L9.26913 1.51971C8.57538 0.850524 7.4921 0.818969 6.76181 1.43279L6.69198 1.49432L5.63632 2.47381C5.12019 2.95253 4.40303 3.14259 3.72226 2.98846L3.58652 2.95282L3.1705 2.82977C2.14436 2.52537 1.10907 3.27879 1.08359 4.34882L1.02939 6.6335C0.954849 9.78475 2.73813 12.686 5.5831 14.0432L7.14218 14.7868L7.24472 14.8323C7.7634 15.0448 8.34977 15.0307 8.85946 14.7893L10.421 14.0491C13.2887 12.6902 15.0823 9.76461 14.9923 6.59248L14.9659 5.67744C14.9825 5.66977 14.999 5.66198 15.0155 5.65406C15.4083 5.46495 15.9672 5.70716 15.9797 6.14298L15.9918 6.56416C16.0931 10.1328 14.0754 13.4241 10.8492 14.9529L9.28769 15.6926C8.52318 16.0548 7.64385 16.0764 6.86581 15.7576L6.71151 15.6897L5.15292 14.946C1.95216 13.4193 -0.0540158 10.1549 0.0298765 6.60957L0.0840757 4.32538L0.0923765 4.16474C0.22929 2.52214 1.84923 1.3943 3.45517 1.87078L3.87118 1.99432L3.94296 2.01336C4.30326 2.0949 4.68294 1.9942 4.95614 1.7409L6.0123 0.761404L6.11874 0.667165Z" fill="url(#paint2_linear_9429_4847)"/>
<path d="M16 2.5C16 3.88071 14.8807 5 13.5 5C12.1193 5 11 3.88071 11 2.5C11 1.11929 12.1193 0 13.5 0C14.8807 0 16 1.11929 16 2.5Z" fill="#EE1025"/>
</g>
<defs>
<linearGradient id="paint0_linear_9429_4847" x1="8.00428" y1="1" x2="8.08789" y2="15.4995" gradientUnits="userSpaceOnUse">
<stop stop-color="#F5F5F5"/>
<stop offset="1" stop-color="#DDDDDD"/>
</linearGradient>
<linearGradient id="paint1_linear_9429_4847" x1="11.5" y1="0.5" x2="11.5" y2="15.4833" gradientUnits="userSpaceOnUse">
<stop stop-color="#DDDDDD"/>
<stop offset="1" stop-color="#AAAAAA"/>
</linearGradient>
<linearGradient id="paint2_linear_9429_4847" x1="7.9997" y1="0.999919" x2="7.9997" y2="14.9999" gradientUnits="userSpaceOnUse">
<stop offset="0.00833332" stop-color="#AAAAAA"/>
<stop offset="1" stop-color="#666666"/>
</linearGradient>
<clipPath id="clip0_9429_4847">
<rect width="16" height="16" fill="white"/>
</clipPath>
</defs>
</svg>

<svg fill="none" viewBox="0 0 16 16" xmlns="http://www.w3.org/2000/svg">
  <g clip-path="url(#Shield-Neutral-Alert-Color-16_svg__a)">
    <path fill="url(#Shield-Neutral-Alert-Color-16_svg__b)" d="M10.057 1.872A3.5 3.5 0 0 0 15 5.663V9.5L12 14l-4 1.5L4 14 1 9.5v-6l1.5-1H5l3-2 2.057 1.372Z"/>
    <path fill="url(#Shield-Neutral-Alert-Color-16_svg__c)" d="M10.057 1.872A3.5 3.5 0 0 0 15 5.663V9.5L12 14l-3 1H8V.5l2.057 1.372Z"/>
    <path fill="url(#Shield-Neutral-Alert-Color-16_svg__d)" d="M6.119.667a2.877 2.877 0 0 1 3.15-.362c.27.137.498.32.716.52.184.169.23.437.16.677-.07.235-.116.48-.135.733l-.74-.715a1.875 1.875 0 0 0-2.508-.087l-.07.061-1.056.98a2.125 2.125 0 0 1-1.914.514l-.135-.035-.417-.123a1.625 1.625 0 0 0-2.086 1.519l-.055 2.284a8 8 0 0 0 4.554 7.41l1.56.744.102.045a2 2 0 0 0 1.614-.043l1.562-.74a8 8 0 0 0 4.571-7.457l-.026-.915a3.73 3.73 0 0 0 .05-.023c.392-.189.951.053.964.489l.012.421a9 9 0 0 1-5.143 8.389l-1.561.74a3 3 0 0 1-2.422.065l-.154-.068-1.56-.744A9 9 0 0 1 .03 6.61l.054-2.285.008-.16A2.626 2.626 0 0 1 3.455 1.87l.416.123.072.02c.36.08.74-.02 1.013-.273L6.012.76 6.12.667Z"/>
    <path fill="#EE1025" d="M16 2.5a2.5 2.5 0 1 1-5 0 2.5 2.5 0 0 1 5 0Z"/>
  </g>
  <defs>
    <linearGradient id="Shield-Neutral-Alert-Color-16_svg__b" x1="8.004" x2="8.088" y1="1" y2="15.499" gradientUnits="userSpaceOnUse">
      <stop stop-color="#F5F5F5"/>
      <stop offset="1" stop-color="#DDD"/>
    </linearGradient>
    <linearGradient id="Shield-Neutral-Alert-Color-16_svg__c" x1="11.5" x2="11.5" y1=".5" y2="15.483" gradientUnits="userSpaceOnUse">
      <stop stop-color="#DDD"/>
      <stop offset="1" stop-color="#AAA"/>
    </linearGradient>
    <linearGradient id="Shield-Neutral-Alert-Color-16_svg__d" x1="8" x2="8" y1="1" y2="15" gradientUnits="userSpaceOnUse">
      <stop offset=".008" stop-color="#AAA"/>
      <stop offset="1" stop-color="#666"/>
    </linearGradient>
    <clipPath id="Shield-Neutral-Alert-Color-16_svg__a">
      <path fill="#fff" d="M0 0h16v16H0z"/>
    </clipPath>
  </defs>
</svg>
